X: 43188
T: Wiseman's
R: slip jig
M: 9/8
K: Amajor
A2B|:Bcc BAE GAe|F2DDB,2 C3|D2CCA,2 A,B,C|D2CCA,2 B,AB|
Bcc BAE GAe|F2DDB,2 C3|D2CCA,2 A,B,C|1 B,CB, {C}B,A,G, A,3:|2 B,CB, {C}B,A,G, A,CE||
|:F2GGA2 BAB|c2eeE2 FDF|F2GGA2 EA,A,|A,2B,B,C2 B,CE|
F2GGA2 BAB|c2eeE2 FDF|F2GGA2 EA,A,|B,CB, {C}B,A,G, A,CE|
F2GGA2 BAB|c2eeE2 FDA|A2GGF2 EA,A,|A,2B,B,C2 B,AB|
Bcc BAE GAe|F2DDB,2 C3|D2CCA,2 A,B,C|1 B,CB, {C}B,A,G, A,CE:|2 B,CB, {C}B,A,G, A,3||

